src/dsmComponents/Icons/clock-time-12px.svg

<?xml version="1.0" encoding="UTF-8"?>
<svg width="12px" height="12px" viewBox="0 0 12 12" version="1.1" xmlns="http://www.w3.org/2000/svg" xmlns:xlink="http://www.w3.org/1999/xlink">
    <!-- Generator: Sketch 59.1 (86144) - https://sketch.com -->
    <title>clock-time-12px</title>
    <desc>Created with Sketch.</desc>
    <defs>
        <path d="M5.994,0 C2.682,0 0,2.688 0,6 C0,9.312 2.682,12 5.994,12 C9.312,12 12,9.312 12,6 C12,2.688 9.312,0 5.994,0 Z M6,10.8 C3.348,10.8 1.2,8.652 1.2,6 C1.2,3.348 3.348,1.2 6,1.2 C8.652,1.2 10.8,3.348 10.8,6 C10.8,8.652 8.652,10.8 6,10.8 Z M5.85,3 C5.60147186,3 5.4,3.20147186 5.4,3.45 L5.4,6.6 L5.4,6.6 L8.17940231,8.26764139 C8.38450456,8.39070274 8.65047681,8.32521803 8.775,8.121 C8.89777452,7.91964979 8.83407633,7.65689479 8.63272613,7.53412027 C8.63126063,7.53322667 8.62978976,7.53234192 8.62831359,7.53146607 L6.3,6.15 L6.3,6.15 L6.3,3.45 C6.3,3.20147186 6.09852814,3 5.85,3 Z" id="path-1"></path>
    </defs>
    <g id="Final" stroke="none" stroke-width="1" fill="none" fill-rule="evenodd">
        <g id="All-Nucleo-Icons" transform="translate(-174.000000, -1821.000000)">
            <g id="Solo/Nucleo/12px/clock-time" transform="translate(168.000000, 1815.000000)">
                <g id="ic_access_time" transform="translate(6.000000, 6.000000)">
                    <mask id="mask-2" fill="white">
                        <use xlink:href="#path-1"></use>
                    </mask>
                    <g id="Shape" fill-rule="nonzero"></g>
                    <g id="colour/neutral/chia" mask="url(#mask-2)" fill="#737373">
                        <g transform="translate(-18.000000, -18.000000)" id="Colour">
                            <rect x="0" y="0" width="48" height="48"></rect>
                        </g>
                    </g>
                </g>
            </g>
        </g>
    </g>
</svg>

<svg width="12" height="12" xmlns="http://www.w3.org/2000/svg" xmlns:xlink="http://www.w3.org/1999/xlink"><defs><path d="M5.994 0A5.997 5.997 0 000 6c0 3.312 2.682 6 5.994 6A6.003 6.003 0 0012 6c0-3.312-2.688-6-6.006-6zM6 10.8A4.799 4.799 0 011.2 6c0-2.652 2.148-4.8 4.8-4.8 2.652 0 4.8 2.148 4.8 4.8 0 2.652-2.148 4.8-4.8 4.8zM5.85 3a.45.45 0 00-.45.45V6.6l2.78 1.668a.435.435 0 00.595-.147.427.427 0 00-.147-.59L6.3 6.15v-2.7A.45.45 0 005.85 3z" id="clock-time-12px_svg__a"/></defs><use fill="#737373" xlink:href="#clock-time-12px_svg__a" fill-rule="evenodd"/></svg>
